twotone/svg/airline_seat_flat_angled.svg

<svg xmlns="http://www.w3.org/2000/svg" width="24" height="24"><path fill="none" d="M0 0h24v24H0V0z"/><g fill="currentColor"><path opacity=".3" d="M14 16.64l-4-1.45V17h4zM6 8.5c.15 0 .3-.03.44-.1.49-.24.7-.84.46-1.34A.982.982 0 0 0 6 6.5a.999.999 0 0 0-.9 1.43c.2.42.59.57.9.57zM19.16 11.02l-6.69-2.41-.7 1.91 8.59 3.11.01-.02c.19-.51.17-1.05-.06-1.53a2 2 0 0 0-1.15-1.06z"/><path d="M1.5 12.14L8 14.48V19h8v-1.63L20.52 19l.69-1.89-19.02-6.86-.69 1.89zm8.5 3.05l4 1.44V17h-4v-1.81zM19.84 9.14l-8.56-3.09-2.08 5.66 12.36 4.47.69-1.89a4 4 0 0 0-2.41-5.15zm.53 4.46l-.01.02-8.59-3.11.7-1.91 6.69 2.41c.52.19.93.56 1.15 1.05.23.49.25 1.04.06 1.54zM6 10.5a3.01 3.01 0 0 0 2.71-4.3A3.013 3.013 0 0 0 6 4.5c-.44 0-.88.1-1.3.3a2.99 2.99 0 0 0-1.4 4c.51 1.07 1.58 1.7 2.7 1.7zm-.94-3.34c.05-.14.18-.4.51-.56a.992.992 0 0 1 1.33.46c.24.5.02 1.1-.47 1.34a.979.979 0 0 1-1.32-.46.986.986 0 0 1-.05-.78z"/></g></svg>

<?xml version="1.0" encoding="utf-8"?>
<!-- Generator: Adobe Illustrator 19.1.0, SVG Export Plug-In . SVG Version: 6.00 Build 0)  -->
<svg version="1.1" xmlns="http://www.w3.org/2000/svg" xmlns:xlink="http://www.w3.org/1999/xlink" x="0px" y="0px" width="24px"
	 height="24px" viewBox="0 0 24 24" enable-background="new 0 0 24 24" xml:space="preserve">
<g id="Bounding_Boxes">
	<g id="ui_x5F_spec_x5F_header_copy_2">
	</g>
	<path fill="none" d="M0,0h24v24H0V0z"/>
</g>
<g id="Duotone" fill="currentColor">
	<g id="ui_x5F_spec_x5F_header_copy">
	</g>
	<g>
		<polygon opacity="0.3" points="14,16.64 10,15.19 10,17 14,17 		"/>
		<path opacity="0.3" d="M6,8.5c0.15,0,0.3-0.03,0.44-0.1C6.93,8.16,7.14,7.56,6.9,7.06C6.71,6.65,6.31,6.5,6,6.5
			c-0.15,0-0.3,0.03-0.44,0.1C5.24,6.76,5.11,7.02,5.06,7.16C5.01,7.31,4.94,7.6,5.1,7.93C5.3,8.35,5.69,8.5,6,8.5z"/>
		<path opacity="0.3" d="M19.16,11.02l-6.69-2.41l-0.7,1.91l8.59,3.11l0.01-0.02c0.19-0.51,0.17-1.05-0.06-1.53
			C20.08,11.58,19.68,11.21,19.16,11.02z"/>
		<g>
			<path d="M1.5,12.14L8,14.48V19h8v-1.63L20.52,19l0.69-1.89L2.19,10.25L1.5,12.14z M10,15.19l4,1.44V17h-4V15.19z"/>
			<path d="M19.84,9.14l-8.56-3.09L9.2,11.71l12.36,4.47l0.69-1.89C23.02,12.2,21.94,9.9,19.84,9.14z M20.37,13.6l-0.01,0.02
				l-8.59-3.11l0.7-1.91l6.69,2.41c0.52,0.19,0.93,0.56,1.15,1.05C20.54,12.55,20.56,13.1,20.37,13.6z"/>
			<path d="M6,10.5c0.44,0,0.88-0.1,1.3-0.3c1.49-0.72,2.12-2.51,1.41-4C8.19,5.13,7.12,4.5,6,4.5c-0.44,0-0.88,0.1-1.3,0.3
				c-1.49,0.71-2.12,2.5-1.4,4C3.81,9.87,4.88,10.5,6,10.5z M5.06,7.16C5.11,7.02,5.24,6.76,5.57,6.6C5.71,6.54,5.85,6.5,6,6.5
				c0.31,0,0.7,0.15,0.9,0.56c0.24,0.5,0.02,1.1-0.47,1.34C6.29,8.46,6.15,8.5,6,8.5c-0.3,0-0.7-0.15-0.89-0.56
				C4.94,7.6,5.01,7.31,5.06,7.16z"/>
		</g>
	</g>
</g>
</svg>
